src/assets/cards/6C.svg

<svg clip-rule="evenodd" fill-rule="evenodd" stroke-linejoin="round" stroke-miterlimit="2" viewBox="0 0 934 1300" xmlns="http://www.w3.org/2000/svg"><g fill-rule="nonzero"><path d="m35.44 150.393c-1.694-11.441-1.669-41.02-.276-49.751 4.29-26.794 14.727-39.038 32.188-43.064 16.947-3.889 40.781.451 46.012 22.843l-14.187.263c-7.677-15.141-27.071-11.089-37.984-4.503-8.731 5.256-12.67 27.158-10.976 28.513-.013 0 16.483-11.992 29.479-11.102 27.785 2.835 39.238 26.481 38.272 48.822-.878 26.87-9.559 48.346-39.012 49.776-27.987-1.054-40.819-16.044-43.516-41.797zm69.043-7.1c.163-18.654-8.467-32.603-24.787-34.133-16.308-1.543-32.766 14.087-31.624 33.091 1.141 19.068 8.655 35.137 28.437 35.037 21.275-.088 27.874-20.724 27.974-33.995z"/><path d="m896.891 1149.61c1.706 11.44 1.681 41.02.276 49.75-4.278 26.79-14.715 39.04-32.176 43.06-16.947 3.9-40.782-.44-46.013-22.84l14.188-.27c7.677 15.14 27.071 11.09 37.984 4.51 8.718-5.26 12.67-27.16 10.976-28.51.013 0-16.483 11.99-29.479 11.1-27.785-2.84-39.238-26.48-38.272-48.83.878-26.87 9.558-48.34 39-49.77 27.999 1.05 40.831 16.04 43.516 41.8zm-69.044 7.1c-.15 18.65 8.48 32.59 24.8 34.13 16.308 1.54 32.766-14.09 31.624-33.09-1.141-19.07-8.668-35.13-28.45-35.04-21.275.09-27.861 20.73-27.974 34z"/><path d="m643.5 769.451c12-24.063 20.708-48.755 22.292-75.155 1.416-9.716-4.5-9.879-5.375-3.037-17 64.971-107.375 47.379-104.25-13.733 2.5-49.563 51.75-60.225 77.416-44.021 10.167 5.971 9.584 2.396 4.042-3.796-38.167-42.55-15.042-97.342 36.5-98.346 55.75 3.308 70.208 61.958 36 96.45-4.25 4.146-13.667 17.467.542 8.154 34.541-24.533 82.458 1.846 81.458 39.667-1.792 69.746-86.833 74.95-105 16.692-1.75-6.459-6.792-9.7-5.417 1.266 2.542 19.863 7.75 49.809 22.667 75.859z"/><path d="m228.75 769.451c12-24.063 20.75-48.755 22.292-75.155 1.416-9.716-4.459-9.879-5.375-3.037-16.959 64.971-107.334 47.379-104.209-13.733 2.5-49.563 51.75-60.225 77.417-44.021 10.125 5.971 9.583 2.396 4.042-3.796-38.167-42.55-15.042-97.342 36.5-98.346 55.75 3.308 70.208 61.958 36 96.45-4.25 4.146-13.667 17.467.5 8.154 34.541-24.533 82.458 1.846 81.5 39.667-1.834 69.746-86.834 74.95-105.042 16.692-1.75-6.459-6.75-9.7-5.375 1.266 2.5 19.863 7.75 49.809 22.667 75.859z"/><path d="m643.5 357.396c12-24.066 20.708-48.754 22.292-75.158 1.416-9.712-4.5-9.875-5.375-3.033-17 64.966-107.375 47.375-104.25-13.738 2.5-49.562 51.75-60.225 77.416-44.016 10.167 5.966 9.584 2.391 4.042-3.8-38.167-42.55-15.042-97.342 36.5-98.346 55.75 3.308 70.208 61.958 36 96.454-4.25 4.142-13.667 17.462.542 8.15 34.541-24.533 82.458 1.846 81.458 39.671-1.792 69.746-86.833 74.946-105 16.691-1.75-6.462-6.792-9.704-5.417 1.267 2.542 19.863 7.75 49.804 22.667 75.858z"/><path d="m228.75 357.396c12-24.066 20.75-48.754 22.292-75.158 1.416-9.712-4.459-9.875-5.375-3.033-16.959 64.966-107.334 47.375-104.209-13.738 2.5-49.562 51.75-60.225 77.417-44.016 10.125 5.966 9.583 2.391 4.042-3.8-38.167-42.55-15.042-97.342 36.5-98.346 55.75 3.308 70.208 61.958 36 96.454-4.25 4.142-13.667 17.462.5 8.15 34.541-24.533 82.458 1.846 81.5 39.671-1.834 69.746-86.834 74.946-105.042 16.691-1.75-6.462-6.75-9.704-5.375 1.267 2.5 19.863 7.75 49.804 22.667 75.858z"/><path d="m704.75 942.192c-12 24.063-20.75 48.754-22.292 75.158-1.416 9.71 4.5 9.88 5.375 3.03 17-64.967 107.334-47.375 104.25 13.74-2.541 49.56-51.75 60.22-77.458 44.02-10.125-5.97-9.542-2.4-4.042 3.79 38.167 42.55 15.084 97.35-36.5 98.35-55.708-3.31-70.208-61.96-36-96.45 4.25-4.15 13.667-17.47-.5-8.15-34.541 24.53-82.458-1.85-81.5-39.67 1.834-69.747 86.834-74.951 105.042-16.69 1.75 6.46 6.792 9.7 5.375-1.27-2.5-19.862-7.708-49.808-22.667-75.858z"/><path d="m290.042 942.192c-12 24.063-20.75 48.754-22.292 75.158-1.417 9.71 4.458 9.88 5.375 3.03 16.958-64.967 107.333-47.375 104.208 13.74-2.5 49.56-51.75 60.22-77.416 44.02-10.125-5.97-9.584-2.4-4.042 3.79 38.167 42.55 15.042 97.35-36.5 98.35-55.75-3.31-70.208-61.96-36-96.45 4.25-4.15 13.667-17.47-.542-8.15-34.5 24.53-82.416-1.85-81.458-39.67 1.792-69.747 86.833-74.951 105.042-16.69 1.708 6.46 6.75 9.7 5.375-1.27-2.5-19.862-7.75-49.808-22.667-75.858z"/><path d="m56.417 307.901c5-10.188 9.833-19.671 12.458-30.838 1.75-10.533-1.833-6.621-3.875.283-3 9.571-11.333 13.934-19.083 14.038-14.042.187-21.042-10.85-20.584-22.725-1.541-12.496 11.125-21.333 20.667-20.654 7.167.512 13.417 4.383 17.208 7.396 2.5 1.316 5.167 1.895 1.459-1.492-7-7.638-12.834-12.35-12.709-23.796.125-10.746 9.292-21.95 21.459-21.6 15.25.442 22.166 12.042 22.125 22.838-.042 7.866-3.959 15.108-10.042 19.591-3.958 3.196-2.833 5.584 1.625 2.563 4.333-3.717 9.458-5.342 14.792-5.459 14.541-.225 20.208 12.342 19.375 24.017-.75 10.942-10.084 22.204-22.334 20.929-10.958-1.258-16.75-10.458-20.041-19.904-1.084-2.896-2.834-3.679-2.75.638 2.5 21.07 10.375 34.183 10.416 34.175z"/><path d="m876.875 982.913c-4.958 10.188-9.792 19.667-12.417 30.837-1.75 10.53 1.792 6.62 3.834-.28 3-9.58 11.333-13.936 19.083-14.04 14.042-.192 21.042 10.85 20.625 22.72 1.542 12.5-11.125 21.34-20.667 20.66-7.208-.52-13.458-4.39-17.25-7.4-2.458-1.31-5.125-1.89-1.416 1.49 7 7.64 12.833 12.36 12.666 23.8-.083 10.74-9.291 21.95-21.458 21.6-15.208-.44-22.125-12.04-22.083-22.84.041-7.87 3.958-15.11 10.041-19.59 3.917-3.19 2.834-5.59-1.666-2.56-4.334 3.71-9.459 5.34-14.75 5.45-14.584.23-20.25-12.33-19.417-24.01.792-10.94 10.083-22.204 22.375-20.929 10.958 1.255 16.708 10.459 20 19.909 1.125 2.89 2.833 3.67 2.792-.65-2.542-21.067-10.375-34.179-10.459-34.167z"/></g></svg>

<?xml version="1.0" encoding="UTF-8" standalone="no"?>
<!DOCTYPE svg PUBLIC "-//W3C//DTD SVG 1.1//EN" "http://www.w3.org/Graphics/SVG/1.1/DTD/svg11.dtd">
<svg width="100%" height="100%" viewBox="0 0 934 1300" version="1.1" xmlns="http://www.w3.org/2000/svg" xmlns:xlink="http://www.w3.org/1999/xlink" xml:space="preserve" xmlns:serif="http://www.serif.com/" style="fill-rule:evenodd;clip-rule:evenodd;stroke-linejoin:round;stroke-miterlimit:2;">
    <g>
        <g id="path7108-1">
            <path d="M35.44,150.393C33.746,138.952 33.771,109.373 35.164,100.642C39.454,73.848 49.891,61.604 67.352,57.578C84.299,53.689 108.133,58.029 113.364,80.421L99.177,80.684C91.5,65.543 72.106,69.595 61.193,76.181C52.462,81.437 48.523,103.339 50.217,104.694C50.204,104.694 66.7,92.702 79.696,93.592C107.481,96.427 118.934,120.073 117.968,142.414C117.09,169.284 108.409,190.76 78.956,192.19C50.969,191.136 38.137,176.146 35.44,150.393ZM104.483,143.293C104.646,124.639 96.016,110.69 79.696,109.16C63.388,107.617 46.93,123.247 48.072,142.251C49.213,161.319 56.727,177.388 76.509,177.288C97.784,177.2 104.383,156.564 104.483,143.293Z" style="fill-rule:nonzero;"/>
        </g>
        <g id="path7161-2">
            <path d="M896.891,1149.61C898.597,1161.05 898.572,1190.63 897.167,1199.36C892.889,1226.15 882.452,1238.4 864.991,1242.42C848.044,1246.32 824.209,1241.98 818.978,1219.58L833.166,1219.31C840.843,1234.45 860.237,1230.4 871.15,1223.82C879.868,1218.56 883.82,1196.66 882.126,1195.31C882.139,1195.31 865.643,1207.3 852.647,1206.41C824.862,1203.57 813.409,1179.93 814.375,1157.58C815.253,1130.71 823.933,1109.24 853.375,1107.81C881.374,1108.86 894.206,1123.85 896.891,1149.61ZM827.847,1156.71C827.697,1175.36 836.327,1189.3 852.647,1190.84C868.955,1192.38 885.413,1176.75 884.271,1157.75C883.13,1138.68 875.603,1122.62 855.821,1122.71C834.546,1122.8 827.96,1143.44 827.847,1156.71Z" style="fill-rule:nonzero;"/>
        </g>
        <g id="path3237">
            <path d="M643.5,769.451C655.5,745.388 664.208,720.696 665.792,694.296C667.208,684.58 661.292,684.417 660.417,691.259C643.417,756.23 553.042,738.638 556.167,677.526C558.667,627.963 607.917,617.301 633.583,633.505C643.75,639.476 643.167,635.901 637.625,629.709C599.458,587.159 622.583,532.367 674.125,531.363C729.875,534.671 744.333,593.321 710.125,627.813C705.875,631.959 696.458,645.28 710.667,635.967C745.208,611.434 793.125,637.813 792.125,675.634C790.333,745.38 705.292,750.584 687.125,692.326C685.375,685.867 680.333,682.626 681.708,693.592C684.25,713.455 689.458,743.401 704.375,769.451L643.5,769.451Z" style="fill-rule:nonzero;"/>
        </g>
        <g id="path3239">
            <path d="M228.75,769.451C240.75,745.388 249.5,720.696 251.042,694.296C252.458,684.58 246.583,684.417 245.667,691.259C228.708,756.23 138.333,738.638 141.458,677.526C143.958,627.963 193.208,617.301 218.875,633.505C229,639.476 228.458,635.901 222.917,629.709C184.75,587.159 207.875,532.367 259.417,531.363C315.167,534.671 329.625,593.321 295.417,627.813C291.167,631.959 281.75,645.28 295.917,635.967C330.458,611.434 378.375,637.813 377.417,675.634C375.583,745.38 290.583,750.584 272.375,692.326C270.625,685.867 265.625,682.626 267,693.592C269.5,713.455 274.75,743.401 289.667,769.451L228.75,769.451Z" style="fill-rule:nonzero;"/>
        </g>
        <g id="path3241">
            <path d="M643.5,357.396C655.5,333.33 664.208,308.642 665.792,282.238C667.208,272.526 661.292,272.363 660.417,279.205C643.417,344.171 553.042,326.58 556.167,265.467C558.667,215.905 607.917,205.242 633.583,221.451C643.75,227.417 643.167,223.842 637.625,217.651C599.458,175.101 622.583,120.309 674.125,119.305C729.875,122.613 744.333,181.263 710.125,215.759C705.875,219.901 696.458,233.221 710.667,223.909C745.208,199.376 793.125,225.755 792.125,263.58C790.333,333.326 705.292,338.526 687.125,280.271C685.375,273.809 680.333,270.567 681.708,281.538C684.25,301.401 689.458,331.342 704.375,357.396L643.5,357.396Z" style="fill-rule:nonzero;"/>
        </g>
        <g id="path3243">
            <path d="M228.75,357.396C240.75,333.33 249.5,308.642 251.042,282.238C252.458,272.526 246.583,272.363 245.667,279.205C228.708,344.171 138.333,326.58 141.458,265.467C143.958,215.905 193.208,205.242 218.875,221.451C229,227.417 228.458,223.842 222.917,217.651C184.75,175.101 207.875,120.309 259.417,119.305C315.167,122.613 329.625,181.263 295.417,215.759C291.167,219.901 281.75,233.221 295.917,223.909C330.458,199.376 378.375,225.755 377.417,263.58C375.583,333.326 290.583,338.526 272.375,280.271C270.625,273.809 265.625,270.567 267,281.538C269.5,301.401 274.75,331.342 289.667,357.396L228.75,357.396Z" style="fill-rule:nonzero;"/>
        </g>
        <g id="path3393">
            <path d="M704.75,942.192C692.75,966.255 684,990.946 682.458,1017.35C681.042,1027.06 686.958,1027.23 687.833,1020.38C704.833,955.413 795.167,973.005 792.083,1034.12C789.542,1083.68 740.333,1094.34 714.625,1078.14C704.5,1072.17 705.083,1075.74 710.583,1081.93C748.75,1124.48 725.667,1179.28 674.083,1180.28C618.375,1176.97 603.875,1118.32 638.083,1083.83C642.333,1079.68 651.75,1066.36 637.583,1075.68C603.042,1100.21 555.125,1073.83 556.083,1036.01C557.917,966.263 642.917,961.059 661.125,1019.32C662.875,1025.78 667.917,1029.02 666.5,1018.05C664,998.188 658.792,968.242 643.833,942.192L704.75,942.192Z" style="fill-rule:nonzero;"/>
        </g>
        <g id="path3395">
            <path d="M290.042,942.192C278.042,966.255 269.292,990.946 267.75,1017.35C266.333,1027.06 272.208,1027.23 273.125,1020.38C290.083,955.413 380.458,973.005 377.333,1034.12C374.833,1083.68 325.583,1094.34 299.917,1078.14C289.792,1072.17 290.333,1075.74 295.875,1081.93C334.042,1124.48 310.917,1179.28 259.375,1180.28C203.625,1176.97 189.167,1118.32 223.375,1083.83C227.625,1079.68 237.042,1066.36 222.833,1075.68C188.333,1100.21 140.417,1073.83 141.375,1036.01C143.167,966.263 228.208,961.059 246.417,1019.32C248.125,1025.78 253.167,1029.02 251.792,1018.05C249.292,998.188 244.042,968.242 229.125,942.192L290.042,942.192Z" style="fill-rule:nonzero;"/>
        </g>
        <g id="path3462">
            <path d="M56.417,307.901C61.417,297.713 66.25,288.23 68.875,277.063C70.625,266.53 67.042,270.442 65,277.346C62,286.917 53.667,291.28 45.917,291.384C31.875,291.571 24.875,280.534 25.333,268.659C23.792,256.163 36.458,247.326 46,248.005C53.167,248.517 59.417,252.388 63.208,255.401C65.708,256.717 68.375,257.296 64.667,253.909C57.667,246.271 51.833,241.559 51.958,230.113C52.083,219.367 61.25,208.163 73.417,208.513C88.667,208.955 95.583,220.555 95.542,231.351C95.5,239.217 91.583,246.459 85.5,250.942C81.542,254.138 82.667,256.526 87.125,253.505C91.458,249.788 96.583,248.163 101.917,248.046C116.458,247.821 122.125,260.388 121.292,272.063C120.542,283.005 111.208,294.267 98.958,292.992C88,291.734 82.208,282.534 78.917,273.088C77.833,270.192 76.083,269.409 76.167,273.726C78.667,294.796 86.542,307.909 86.583,307.901L56.417,307.901Z" style="fill-rule:nonzero;"/>
        </g>
        <g id="path3488">
            <path d="M876.875,982.913C871.917,993.101 867.083,1002.58 864.458,1013.75C862.708,1024.28 866.25,1020.37 868.292,1013.47C871.292,1003.89 879.625,999.534 887.375,999.43C901.417,999.238 908.417,1010.28 908,1022.15C909.542,1034.65 896.875,1043.49 887.333,1042.81C880.125,1042.29 873.875,1038.42 870.083,1035.41C867.625,1034.1 864.958,1033.52 868.667,1036.9C875.667,1044.54 881.5,1049.26 881.333,1060.7C881.25,1071.44 872.042,1082.65 859.875,1082.3C844.667,1081.86 837.75,1070.26 837.792,1059.46C837.833,1051.59 841.75,1044.35 847.833,1039.87C851.75,1036.68 850.667,1034.28 846.167,1037.31C841.833,1041.02 836.708,1042.65 831.417,1042.76C816.833,1042.99 811.167,1030.43 812,1018.75C812.792,1007.81 822.083,996.546 834.375,997.821C845.333,999.076 851.083,1008.28 854.375,1017.73C855.5,1020.62 857.208,1021.4 857.167,1017.08C854.625,996.013 846.792,982.901 846.708,982.913L876.875,982.913Z" style="fill-rule:nonzero;"/>
        </g>
    </g>
</svg>
